src/assets/filled/SmsNotification.svg

<?xml version="1.0" encoding="UTF-8"?>
<svg width="24" height="24" viewBox="0 0 24 24" xmlns="http://www.w3.org/2000/svg">
 <path d="m19.5 8c1.3807 0 2.5-1.1193 2.5-2.5s-1.1193-2.5-2.5-2.5-2.5 1.1193-2.5 2.5 1.1193 2.5 2.5 2.5z"/>
 <path d="m19.5 8c1.3807 0 2.5-1.1193 2.5-2.5s-1.1193-2.5-2.5-2.5-2.5 1.1193-2.5 2.5 1.1193 2.5 2.5 2.5z"/>
 <path d="m20.72 9.31c-0.7 0.22-1.47 0.26-2.27 0.06-1.34-0.35-2.43-1.42-2.8-2.76-0.18-0.65-0.19-1.29-0.08-1.87 0.13-0.64-0.32-1.24-0.96-1.24h-7.61c-3 0-5 1.5-5 5v7c0 3.5 2 5 5 5h10c3 0 5-1.5 5-5v-5.24c0-0.66-0.64-1.16-1.28-0.95zm-5.2 1.84-1.18 0.94c-0.66 0.53-1.5 0.79-2.34 0.79s-1.69-0.26-2.34-0.79l-3.13-2.5c-0.32-0.26-0.37-0.74-0.12-1.06 0.26-0.32 0.73-0.38 1.05-0.12l3.13 2.5c0.76 0.61 2.05 0.61 2.81 0l1.18-0.94c0.32-0.26 0.8-0.21 1.05 0.12 0.26 0.32 0.21 0.8-0.11 1.06z"/>
</svg>

<svg width="24" height="24" viewBox="0 0 24 24"  xmlns="http://www.w3.org/2000/svg">
<path d="M19.5 8C20.8807 8 22 6.88071 22 5.5C22 4.11929 20.8807 3 19.5 3C18.1193 3 17 4.11929 17 5.5C17 6.88071 18.1193 8 19.5 8Z" />
<path d="M19.5 8C20.8807 8 22 6.88071 22 5.5C22 4.11929 20.8807 3 19.5 3C18.1193 3 17 4.11929 17 5.5C17 6.88071 18.1193 8 19.5 8Z" />
<path d="M20.72 9.31C20.02 9.53 19.25 9.57 18.45 9.37C17.11 9.02 16.02 7.95 15.65 6.61C15.47 5.96 15.46 5.32 15.57 4.74C15.7 4.1 15.25 3.5 14.61 3.5H7C4 3.5 2 5 2 8.5V15.5C2 19 4 20.5 7 20.5H17C20 20.5 22 19 22 15.5V10.26C22 9.6 21.36 9.1 20.72 9.31ZM15.52 11.15L14.34 12.09C13.68 12.62 12.84 12.88 12 12.88C11.16 12.88 10.31 12.62 9.66 12.09L6.53 9.59C6.21 9.33 6.16 8.85 6.41 8.53C6.67 8.21 7.14 8.15 7.46 8.41L10.59 10.91C11.35 11.52 12.64 11.52 13.4 10.91L14.58 9.97C14.9 9.71 15.38 9.76 15.63 10.09C15.89 10.41 15.84 10.89 15.52 11.15Z" />
</svg>
